X:314186898006692
T:8-8-10-10-12-2-10-12-2-12-4-4-3-3-11-12
%%setfont-1 Courier-Bold 8
T:$1K.516f::152:60:42:156:28:122:62:5:70:20:15:132:174:18:173:131::$0
T:$1Perm. No.: 314186898006692$0
M:3/8
L:1/8
Q:1/8=111
%%staves [1 2]
V:1 clef=treble
V:2 clef=bass
K:C
%1
[V:1]|: gf/e/d/c/ |\
[V:2]|: [E,2C,2]z |\
%2
[V:1] gf/e/d/c/ |\
[V:2] [E,2C,2]z |\
%3
[V:1] B/c/d/B/A/G/ |\
[V:2] G,,2z |\
%4
[V:1] c/G/e/c/g |\
[V:2] [G,2E,2]z |\
%5
[V:1] ^f/d/A/a/f/d/ |\
[V:2] [A,2C,2]z |\
%6
[V:1] g/^f/g/b/d |\
[V:2] [D,B,,][D,B,,][G,B,,] |\
%7
[V:1] e/c/B/G/A/^F/ \
[V:2] C,D,D,, \
%8a
[V:1]|1 [g2d2B2G2]z :|2
[V:2]|1 G,,G,/=F,/E,/D,/ :|2
%8b
[V:1] [g2d2B2G2]z |:\
[V:2] G,,B,/G,/^F,/E,/ |:\
%9
[V:1] ^fa/f/d/f/ |\
[V:2] D,2C, |\
%10
[V:1] gb/d'/d |\
[V:2] B,,2z |\
%11
[V:1] eg/e/c |\
[V:2] [G,2C,2][E,C,] |\
%12
[V:1] [ec][d/G/][B/G/]G |\
[V:2] G,G,,z |\
%13
[V:1] Gce |\
[V:2] [E,/C,/]G,/[E,/C,/]G,/[E,/C,/]G,/ |\
%14
[V:1] (Gce) |\
[V:2] [E,2C,2][G,C,] |\
%15
[V:1] f/a/ A B/d/ |\
[V:2] F,2G, |\
%16
[V:1] c2z :|]
[V:2] C,G,,C,, :|]
